Gurmukhi/0A1E.svg

<svg enable-background="new 0 0 336 592" viewBox="0 0 336 592" xmlns="http://www.w3.org/2000/svg"><path d="m160.00148 272.962524c-8.984482.09665-17.497711-.163787-25.748718 2.432892-9.872528 3.107025-14.794113 9.520355-13.972901 18.560334.689919 7.594726 5.711991 11.711456 12.181565 14.448547 9.282867 3.927276 19.219299 3.962463 28.991562 4.079925 24.153198.290375 48.313446.221497 72.467712-.019165 4.170456-.041534 6.040619 1.398438 7.062622 5.123932.878174 3.201264 2.1483 6.294068 3.220505 9.443238 1.965591 5.773071.925232 7.333526-5.115784 7.345672-22.490616.045227-44.981369.034729-67.472061.053192-6.928619.005677-6.96405.275116-8.381256 6.949219-4.131485 19.456574 10.454849 27.461334 26.102905 28.173065 16.296326.741211 32.645844.557587 48.967041.360474 5.000412-.060394 7.727631 1.431274 8.942063 6.345154 1.074325 4.346954 2.785873 8.533783 4.146041 12.813568.936493 2.946716.098191 5.319-3.244522 5.209472-22.724228-.744354-45.638366 2.686982-68.143035-2.967498-24.405152-6.131989-38.443177-24.394745-37.256913-48.57956.152619-3.111786.812195-6.198761 1.261383-9.475616-5.251114-1.698364-10.364456-3.091339-15.277832-4.999237-8.481483-3.293457-16.146797-7.954712-22.092582-15.009186-16.722443-19.840485-13.095009-51.679596 19.179374-59.515427 2.56688-.623199 5.13002-1.261901 8.075989-1.987243-1.004288-2.082154-2.764801-2.700821-4.173691-3.598938-10.170631-6.483322-17.544838-15.31723-21.843742-26.542191-1.301743-3.399017-3.145912-4.605377-6.649719-4.491623-6.157471.199906-12.328347-.045654-18.489571.085312-2.91687.062012-4.670258-1.003677-5.634033-3.791534-1.41346-4.088684-3.052216-8.099106-4.572937-12.151154-1.432442-3.816849.110428-5.749344 3.978866-6.058853 1.657036-.132568 3.329308-.099762 4.99466-.099625 59.975189.004837 119.950394.012574 179.925583.025498 13.961456.003006 13.961456.012222 18.831268 12.951401 2.955841 7.853607 2.145721 9.040542-6.254486 9.057861-7.663452.015808-15.333313.184799-22.987961-.076843-4.26416-.145752-5.863357 1.124313-5.764053 5.635696.278579 12.655258.117004 25.32077.085693 37.982102-.018906 7.641143-4.646881 12.239013-12.370804 12.250061-24.156173.034606-48.312439.027496-72.968231.037078m30.49852-55.795715c-19.105316 0-38.210632 0-57.573349 0 .085495 1.362244.044891 2.012665.183258 2.622467.219879.969071.499252 1.934189.856934 2.861038 5.926635 15.358094 17.38533 24.181824 33.28421 26.931366 16.503097 2.854065 33.236023.851822 49.859588 1.32901 2.95987.084961 3.576676-1.643158 3.558701-4.175934-.059113-8.32843-.140839-16.660293.042969-24.985168.078445-3.553101-1.373169-4.672638-4.726105-4.620758-8.160309.126205-16.323929.039246-25.486206.037979z"/></svg>

<svg version="1.1" id="Layer_1" xmlns="http://www.w3.org/2000/svg" xmlns:xlink="http://www.w3.org/1999/xlink" x="0px" y="0px"
	 width="100%" viewBox="0 0 336 592" enable-background="new 0 0 336 592" xml:space="preserve">
<path fill="#000000" opacity="1.000000" stroke="none" 
	d="
M160.001480,272.962524 
	C151.016998,273.059174 142.503769,272.798737 134.252762,275.395416 
	C124.380234,278.502441 119.458649,284.915771 120.279861,293.955750 
	C120.969780,301.550476 125.991852,305.667206 132.461426,308.404297 
	C141.744293,312.331573 151.680725,312.366760 161.452988,312.484222 
	C185.606186,312.774597 209.766434,312.705719 233.920700,312.465057 
	C238.091156,312.423523 239.961319,313.863495 240.983322,317.588989 
	C241.861496,320.790253 243.131622,323.883057 244.203827,327.032227 
	C246.169418,332.805298 245.129059,334.365753 239.088043,334.377899 
	C216.597427,334.423126 194.106674,334.412628 171.615982,334.431091 
	C164.687363,334.436768 164.651932,334.706207 163.234726,341.380310 
	C159.103241,360.836884 173.689575,368.841644 189.337631,369.553375 
	C205.633957,370.294586 221.983475,370.110962 238.304672,369.913849 
	C243.305084,369.853455 246.032303,371.345123 247.246735,376.259003 
	C248.321060,380.605957 250.032608,384.792786 251.392776,389.072571 
	C252.329269,392.019287 251.490967,394.391571 248.148254,394.282043 
	C225.424026,393.537689 202.509888,396.969025 180.005219,391.314545 
	C155.600067,385.182556 141.562042,366.919800 142.748306,342.734985 
	C142.900925,339.623199 143.560501,336.536224 144.009689,333.259369 
	C138.758575,331.561005 133.645233,330.168030 128.731857,328.260132 
	C120.250374,324.966675 112.585060,320.305420 106.639275,313.250946 
	C89.916832,293.410461 93.544266,261.571350 125.818649,253.735519 
	C128.385529,253.112320 130.948669,252.473618 133.894638,251.748276 
	C132.890350,249.666122 131.129837,249.047455 129.720947,248.149338 
	C119.550316,241.666016 112.176109,232.832108 107.877205,221.607147 
	C106.575462,218.208130 104.731293,217.001770 101.227486,217.115524 
	C95.070015,217.315430 88.899139,217.069870 82.737915,217.200836 
	C79.821045,217.262848 78.067657,216.197159 77.103882,213.409302 
	C75.690422,209.320618 74.051666,205.310196 72.530945,201.258148 
	C71.098503,197.441299 72.641373,195.508804 76.509811,195.199295 
	C78.166847,195.066727 79.839119,195.099533 81.504471,195.099670 
	C141.479660,195.104507 201.454865,195.112244 261.430054,195.125168 
	C275.391510,195.128174 275.391510,195.137390 280.261322,208.076569 
	C283.217163,215.930176 282.407043,217.117111 274.006836,217.134430 
	C266.343384,217.150238 258.673523,217.319229 251.018875,217.057587 
	C246.754715,216.911835 245.155518,218.181900 245.254822,222.693283 
	C245.533401,235.348541 245.371826,248.014053 245.340515,260.675385 
	C245.321609,268.316528 240.693634,272.914398 232.969711,272.925446 
	C208.813538,272.960052 184.657272,272.952942 160.001480,272.962524 
M190.500000,217.166809 
	C171.394684,217.166809 152.289368,217.166809 132.926651,217.166809 
	C133.012146,218.529053 132.971542,219.179474 133.109909,219.789276 
	C133.329788,220.758347 133.609161,221.723465 133.966843,222.650314 
	C139.893478,238.008408 151.352173,246.832138 167.251053,249.581680 
	C183.754150,252.435745 200.487076,250.433502 217.110641,250.910690 
	C220.070511,250.995651 220.687317,249.267532 220.669342,246.734756 
	C220.610229,238.406326 220.528503,230.074463 220.712311,221.749588 
	C220.790756,218.196487 219.339142,217.076950 215.986206,217.128830 
	C207.825897,217.255035 199.662277,217.168076 190.500000,217.166809 
z"/>
</svg>
